public/logos/SN.svg

<?xml version="1.0" encoding="UTF-8"?>
<svg xmlns="http://www.w3.org/2000/svg" xmlns:xlink="http://www.w3.org/1999/xlink" width="176pt" height="45.24pt" viewBox="0 0 176 45.24" version="1.1">
<defs>
<clipPath id="clip1">
  <path d="M 0 38 L 10 38 L 10 45.238281 L 0 45.238281 Z M 0 38 "/>
</clipPath>
</defs>
<g id="surface1">
<g clip-path="url(#clip1)" clip-rule="nonzero">
<path style=" stroke:none;fill-rule:nonzero;fill:rgb(93.760681%,19.758606%,22.035217%);fill-opacity:1;" d="M 9.796875 41.625 C 9.796875 43.621094 7.605469 45.238281 4.898438 45.238281 C 2.1875 45.238281 0 43.621094 0 41.625 C 0 39.628906 2.1875 38.011719 4.898438 38.011719 C 7.605469 38.011719 9.796875 39.628906 9.796875 41.625 "/>
</g>
<path style=" stroke:none;fill-rule:nonzero;fill:rgb(93.760681%,19.758606%,22.035217%);fill-opacity:1;" d="M 13.222656 33.019531 C 13.222656 34.6875 11.300781 36.035156 8.925781 36.039062 C 6.550781 36.035156 4.625 34.6875 4.625 33.019531 C 4.625 31.355469 6.550781 30.011719 8.925781 30.011719 C 11.300781 30.011719 13.222656 31.355469 13.222656 33.019531 "/>
<path style=" stroke:none;fill-rule:nonzero;fill:rgb(93.760681%,19.758606%,22.035217%);fill-opacity:1;" d="M 16.023438 25.84375 C 16.023438 27.183594 14.386719 28.269531 12.367188 28.273438 C 10.34375 28.273438 8.707031 27.183594 8.707031 25.84375 C 8.707031 24.5 10.34375 23.414062 12.367188 23.414062 C 14.386719 23.414062 16.023438 24.5 16.023438 25.84375 "/>
<path style=" stroke:none;fill-rule:nonzero;fill:rgb(93.760681%,19.758606%,22.035217%);fill-opacity:1;" d="M 23.503906 6.226562 C 23.5 6.753906 22.648438 7.183594 21.59375 7.183594 C 20.539062 7.183594 19.683594 6.753906 19.683594 6.226562 C 19.683594 5.699219 20.539062 5.273438 21.59375 5.269531 C 22.648438 5.269531 23.5 5.695312 23.503906 6.226562 "/>
<path style=" stroke:none;fill-rule:nonzero;fill:rgb(93.760681%,19.758606%,22.035217%);fill-opacity:1;" d="M 25.707031 0.683594 C 25.707031 1.066406 25.066406 1.371094 24.273438 1.375 C 23.476562 1.375 22.839844 1.066406 22.835938 0.683594 C 22.835938 0.304688 23.476562 0 24.273438 0 C 25.066406 0 25.707031 0.304688 25.707031 0.683594 "/>
<path style=" stroke:none;fill-rule:nonzero;fill:rgb(93.760681%,19.758606%,22.035217%);fill-opacity:1;" d="M 24.667969 3.324219 C 24.667969 3.765625 23.925781 4.117188 23.011719 4.121094 C 22.09375 4.121094 21.355469 3.765625 21.351562 3.324219 C 21.351562 2.882812 22.09375 2.53125 23.011719 2.53125 C 23.925781 2.53125 24.667969 2.882812 24.667969 3.324219 "/>
<path style=" stroke:none;fill-rule:nonzero;fill:rgb(93.760681%,19.758606%,22.035217%);fill-opacity:1;" d="M 18.398438 19.535156 C 18.398438 20.609375 17.003906 21.484375 15.285156 21.484375 C 13.566406 21.484375 12.167969 20.609375 12.167969 19.535156 C 12.167969 18.460938 13.566406 17.582031 15.285156 17.582031 C 17.003906 17.582031 18.398438 18.460938 18.398438 19.535156 "/>
<path style=" stroke:none;fill-rule:nonzero;fill:rgb(93.760681%,19.758606%,22.035217%);fill-opacity:1;" d="M 20.445312 14.265625 C 20.445312 15.128906 19.257812 15.835938 17.792969 15.835938 C 16.324219 15.835938 15.132812 15.128906 15.132812 14.265625 C 15.132812 13.402344 16.324219 12.695312 17.792969 12.695312 C 19.257812 12.695312 20.445312 13.402344 20.445312 14.265625 "/>
<path style=" stroke:none;fill-rule:nonzero;fill:rgb(93.760681%,19.758606%,22.035217%);fill-opacity:1;" d="M 21.222656 41.023438 C 21.222656 42.820312 19.234375 44.269531 16.777344 44.269531 C 14.320312 44.269531 12.332031 42.820312 12.332031 41.023438 C 12.332031 39.226562 14.320312 37.773438 16.773438 37.777344 C 19.234375 37.777344 21.222656 39.230469 21.222656 41.023438 "/>
<path style=" stroke:none;fill-rule:nonzero;fill:rgb(93.760681%,19.758606%,22.035217%);fill-opacity:1;" d="M 31 38.320312 C 31 39.90625 29.207031 41.1875 26.992188 41.1875 C 24.777344 41.1875 22.984375 39.90625 22.984375 38.320312 C 22.984375 36.742188 24.777344 35.457031 26.992188 35.457031 C 29.207031 35.457031 31 36.734375 31 38.320312 "/>
<path style=" stroke:none;fill-rule:nonzero;fill:rgb(93.760681%,19.758606%,22.035217%);fill-opacity:1;" d="M 35.988281 32.820312 C 35.988281 34.070312 34.523438 35.082031 32.707031 35.082031 C 30.894531 35.082031 29.425781 34.070312 29.425781 32.820312 C 29.425781 31.578125 30.894531 30.566406 32.707031 30.566406 C 34.519531 30.566406 35.988281 31.574219 35.988281 32.820312 "/>
<path style=" stroke:none;fill-rule:nonzero;fill:rgb(93.760681%,19.758606%,22.035217%);fill-opacity:1;" d="M 31.214844 23.011719 C 31.21875 23.839844 30.144531 24.507812 28.828125 24.507812 C 27.507812 24.507812 26.4375 23.839844 26.4375 23.011719 C 26.4375 22.1875 27.507812 21.515625 28.828125 21.515625 C 30.144531 21.515625 31.21875 22.1875 31.214844 23.011719 "/>
<path style=" stroke:none;fill-rule:nonzero;fill:rgb(93.760681%,19.758606%,22.035217%);fill-opacity:1;" d="M 22.214844 9.878906 C 22.214844 10.570312 21.203125 11.128906 19.953125 11.128906 C 18.710938 11.128906 17.699219 10.570312 17.699219 9.878906 C 17.699219 9.1875 18.710938 8.628906 19.953125 8.628906 C 21.203125 8.628906 22.214844 9.1875 22.214844 9.878906 "/>
<path style=" stroke:none;fill-rule:nonzero;fill:rgb(93.760681%,19.758606%,22.035217%);fill-opacity:1;" d="M 35.109375 27.121094 C 35.113281 28.132812 33.867188 28.945312 32.328125 28.941406 C 30.789062 28.945312 29.546875 28.125 29.546875 27.121094 C 29.539062 26.121094 30.789062 25.304688 32.328125 25.304688 C 33.867188 25.304688 35.109375 26.121094 35.109375 27.121094 "/>
<path style=" stroke:none;fill-rule:nonzero;fill:rgb(12.188721%,16.275024%,34.007263%);fill-opacity:1;" d="M 45.785156 41.023438 L 45.785156 27.121094 L 48.015625 27.121094 L 48.015625 32.25 C 48.726562 32 49.402344 31.875 50.039062 31.875 C 51.421875 31.875 52.496094 32.335938 53.261719 33.257812 C 53.925781 34.058594 54.261719 35.105469 54.261719 36.390625 C 54.261719 38.085938 53.695312 39.351562 52.566406 40.195312 C 51.585938 40.933594 50.222656 41.300781 48.484375 41.300781 C 47.742188 41.300781 46.839844 41.207031 45.785156 41.023438 Z M 48.015625 33.953125 L 48.015625 39.445312 C 48.332031 39.5 48.617188 39.527344 48.871094 39.527344 C 50.945312 39.527344 51.980469 38.53125 51.980469 36.542969 C 51.980469 35.574219 51.726562 34.84375 51.214844 34.351562 C 50.769531 33.917969 50.164062 33.699219 49.402344 33.699219 C 48.964844 33.699219 48.5 33.785156 48.015625 33.953125 "/>
<path style=" stroke:none;fill-rule:nonzero;fill:rgb(12.188721%,16.275024%,34.007263%);fill-opacity:1;" d="M 56.542969 41.1875 L 56.542969 32.679688 C 57.832031 32.15625 59.136719 31.890625 60.464844 31.890625 C 61.09375 31.890625 61.691406 31.980469 62.253906 32.152344 L 62.253906 34.027344 C 61.773438 33.855469 61.253906 33.765625 60.691406 33.765625 C 60.035156 33.765625 59.394531 33.886719 58.769531 34.121094 L 58.769531 41.1875 L 56.542969 41.1875 "/>
<path style=" stroke:none;fill-rule:nonzero;fill:rgb(12.188721%,16.275024%,34.007263%);fill-opacity:1;" d="M 63.722656 32.042969 L 65.949219 32.042969 L 65.949219 37.496094 C 65.949219 38.265625 66.109375 38.78125 66.425781 39.050781 C 66.703125 39.292969 67.171875 39.410156 67.84375 39.410156 C 68.289062 39.410156 68.785156 39.351562 69.332031 39.238281 L 69.332031 32.042969 L 71.558594 32.042969 L 71.558594 40.867188 C 70.074219 41.15625 68.773438 41.300781 67.65625 41.300781 C 66.246094 41.300781 65.21875 41.019531 64.578125 40.453125 C 64.242188 40.136719 64.015625 39.742188 63.886719 39.273438 C 63.777344 38.859375 63.722656 38.296875 63.722656 37.589844 L 63.722656 32.042969 "/>
<path style=" stroke:none;fill-rule:nonzero;fill:rgb(12.188721%,16.275024%,34.007263%);fill-opacity:1;" d="M 73.996094 40.867188 L 73.996094 38.84375 C 74.875 39.386719 75.707031 39.664062 76.484375 39.664062 C 77.472656 39.664062 77.96875 39.355469 77.96875 38.738281 C 77.96875 38.320312 77.675781 37.972656 77.089844 37.707031 L 76.191406 37.277344 C 75.363281 36.894531 74.78125 36.472656 74.445312 36.015625 C 74.148438 35.613281 73.996094 35.136719 73.996094 34.589844 C 73.996094 33.707031 74.355469 33.019531 75.066406 32.523438 C 75.691406 32.09375 76.496094 31.875 77.480469 31.875 C 78.300781 31.875 79.085938 32.042969 79.84375 32.378906 L 79.84375 34.292969 C 79.09375 33.832031 78.359375 33.601562 77.640625 33.601562 C 76.652344 33.601562 76.15625 33.894531 76.15625 34.476562 C 76.15625 34.714844 76.257812 34.914062 76.460938 35.070312 C 76.648438 35.210938 77.070312 35.4375 77.730469 35.75 C 78.644531 36.210938 79.253906 36.621094 79.566406 36.976562 C 79.960938 37.433594 80.160156 37.988281 80.160156 38.644531 C 80.160156 39.566406 79.796875 40.277344 79.074219 40.777344 C 78.4375 41.214844 77.601562 41.4375 76.566406 41.4375 C 75.675781 41.4375 74.820312 41.246094 73.996094 40.867188 "/>
<path style=" stroke:none;fill-rule:nonzero;fill:rgb(12.188721%,16.275024%,34.007263%);fill-opacity:1;" d="M 81.949219 40.867188 L 81.949219 38.84375 C 82.824219 39.386719 83.652344 39.664062 84.433594 39.664062 C 85.421875 39.664062 85.914062 39.355469 85.914062 38.738281 C 85.914062 38.320312 85.621094 37.972656 85.035156 37.707031 L 84.140625 37.277344 C 83.3125 36.894531 82.730469 36.472656 82.394531 36.015625 C 82.09375 35.613281 81.949219 35.136719 81.949219 34.589844 C 81.949219 33.707031 82.304688 33.019531 83.019531 32.523438 C 83.640625 32.09375 84.445312 31.875 85.429688 31.875 C 86.246094 31.875 87.035156 32.042969 87.789062 32.378906 L 87.789062 34.292969 C 87.039062 33.832031 86.304688 33.601562 85.589844 33.601562 C 84.597656 33.601562 84.105469 33.894531 84.105469 34.476562 C 84.105469 34.714844 84.207031 34.914062 84.40625 35.070312 C 84.597656 35.210938 85.019531 35.4375 85.675781 35.75 C 86.59375 36.210938 87.203125 36.621094 87.515625 36.976562 C 87.910156 37.433594 88.109375 37.988281 88.109375 38.644531 C 88.109375 39.566406 87.746094 40.277344 87.023438 40.777344 C 86.386719 41.214844 85.550781 41.4375 84.515625 41.4375 C 83.625 41.4375 82.769531 41.246094 81.949219 40.867188 "/>
<path style=" stroke:none;fill-rule:nonzero;fill:rgb(12.188721%,16.275024%,34.007263%);fill-opacity:1;" d="M 98.234375 37.035156 L 91.953125 37.035156 C 92.050781 38.730469 92.992188 39.578125 94.78125 39.578125 C 95.890625 39.578125 96.882812 39.253906 97.769531 38.609375 L 97.769531 40.472656 C 96.734375 41.09375 95.632812 41.402344 94.453125 41.402344 C 92.890625 41.402344 91.695312 40.9375 90.867188 40.011719 C 90.15625 39.199219 89.796875 38.105469 89.796875 36.738281 C 89.796875 35.171875 90.257812 33.933594 91.179688 33.023438 C 91.988281 32.234375 93.015625 31.84375 94.261719 31.84375 C 95.132812 31.84375 95.894531 32.050781 96.539062 32.472656 C 97.101562 32.847656 97.523438 33.339844 97.804688 33.957031 C 98.09375 34.617188 98.234375 35.628906 98.234375 36.996094 C 98.234375 37.015625 98.234375 37.027344 98.234375 37.035156 Z M 92.101562 35.441406 L 96.085938 35.441406 C 95.984375 34.167969 95.367188 33.535156 94.222656 33.535156 C 93.621094 33.535156 93.128906 33.726562 92.75 34.109375 C 92.414062 34.4375 92.199219 34.882812 92.101562 35.441406 "/>
<path style=" stroke:none;fill-rule:nonzero;fill:rgb(12.188721%,16.275024%,34.007263%);fill-opacity:1;" d="M 100.527344 41.1875 L 100.527344 27.121094 L 102.757812 27.121094 L 102.757812 41.1875 L 100.527344 41.1875 "/>
<path style=" stroke:none;fill-rule:nonzero;fill:rgb(12.188721%,16.275024%,34.007263%);fill-opacity:1;" d="M 105.214844 40.867188 L 105.214844 38.84375 C 106.09375 39.386719 106.921875 39.664062 107.703125 39.664062 C 108.6875 39.664062 109.183594 39.355469 109.183594 38.738281 C 109.183594 38.320312 108.890625 37.972656 108.304688 37.707031 L 107.410156 37.277344 C 106.578125 36.894531 106 36.472656 105.664062 36.015625 C 105.367188 35.613281 105.214844 35.136719 105.214844 34.589844 C 105.214844 33.707031 105.570312 33.019531 106.285156 32.523438 C 106.90625 32.09375 107.710938 31.875 108.699219 31.875 C 109.515625 31.875 110.304688 32.042969 111.058594 32.378906 L 111.058594 34.292969 C 110.308594 33.832031 109.574219 33.601562 108.855469 33.601562 C 107.867188 33.601562 107.375 33.894531 107.375 34.476562 C 107.375 34.714844 107.476562 34.914062 107.675781 35.070312 C 107.863281 35.210938 108.289062 35.4375 108.945312 35.75 C 109.859375 36.210938 110.472656 36.621094 110.785156 36.976562 C 111.179688 37.433594 111.378906 37.988281 111.378906 38.644531 C 111.378906 39.566406 111.015625 40.277344 110.289062 40.777344 C 109.65625 41.214844 108.820312 41.4375 107.785156 41.4375 C 106.894531 41.4375 106.039062 41.246094 105.214844 40.867188 "/>
<path style=" stroke:none;fill-rule:nonzero;fill:rgb(12.188721%,16.275024%,34.007263%);fill-opacity:1;" d="M 117.441406 34.722656 L 117.441406 32.808594 C 118.609375 32.1875 119.792969 31.875 121 31.875 C 122.3125 31.875 123.171875 32.265625 123.566406 33.039062 C 123.769531 33.425781 123.871094 34.144531 123.871094 35.207031 L 123.871094 41.003906 C 122.296875 41.226562 121.011719 41.335938 120.019531 41.335938 C 118.871094 41.335938 118.050781 41.101562 117.554688 40.628906 C 117.121094 40.214844 116.90625 39.589844 116.90625 38.753906 C 116.90625 37.507812 117.429688 36.632812 118.480469 36.125 C 119.171875 35.789062 120.222656 35.546875 121.632812 35.390625 L 121.824219 35.375 L 121.824219 35.042969 C 121.824219 34.507812 121.714844 34.144531 121.496094 33.949219 C 121.300781 33.785156 120.96875 33.699219 120.503906 33.699219 C 119.535156 33.699219 118.515625 34.042969 117.441406 34.722656 Z M 121.863281 39.484375 L 121.863281 37.046875 C 120.71875 37.132812 119.933594 37.308594 119.507812 37.570312 C 119.136719 37.796875 118.949219 38.136719 118.949219 38.59375 C 118.949219 39.285156 119.351562 39.628906 120.164062 39.628906 C 120.617188 39.628906 121.183594 39.582031 121.863281 39.484375 "/>
<path style=" stroke:none;fill-rule:nonzero;fill:rgb(12.188721%,16.275024%,34.007263%);fill-opacity:1;" d="M 126.589844 30.320312 L 126.589844 27.941406 L 128.882812 27.941406 L 128.882812 30.320312 Z M 126.621094 41.1875 L 126.621094 32.0625 L 128.847656 32.0625 L 128.847656 41.1875 L 126.621094 41.1875 "/>
<path style=" stroke:none;fill-rule:nonzero;fill:rgb(12.188721%,16.275024%,34.007263%);fill-opacity:1;" d="M 131.722656 41.1875 L 131.722656 32.679688 C 133.011719 32.15625 134.320312 31.890625 135.644531 31.890625 C 136.273438 31.890625 136.871094 31.980469 137.433594 32.152344 L 137.433594 34.027344 C 136.953125 33.855469 136.433594 33.765625 135.871094 33.765625 C 135.214844 33.765625 134.574219 33.886719 133.949219 34.121094 L 133.949219 41.1875 L 131.722656 41.1875 "/>
<path style=" stroke:none;fill-rule:nonzero;fill:rgb(12.188721%,16.275024%,34.007263%);fill-opacity:1;" d="M 139.21875 41.1875 L 139.21875 27.121094 L 141.445312 27.121094 L 141.445312 41.1875 L 139.21875 41.1875 "/>
<path style=" stroke:none;fill-rule:nonzero;fill:rgb(12.188721%,16.275024%,34.007263%);fill-opacity:1;" d="M 144.308594 30.320312 L 144.308594 27.941406 L 146.601562 27.941406 L 146.601562 30.320312 Z M 144.339844 41.1875 L 144.339844 32.0625 L 146.566406 32.0625 L 146.566406 41.1875 L 144.339844 41.1875 "/>
<path style=" stroke:none;fill-rule:nonzero;fill:rgb(12.188721%,16.275024%,34.007263%);fill-opacity:1;" d="M 149.441406 41.1875 L 149.441406 32.507812 C 150.878906 32.097656 152.261719 31.890625 153.585938 31.890625 C 155.027344 31.890625 156.042969 32.203125 156.628906 32.828125 C 157.117188 33.351562 157.363281 34.183594 157.363281 35.320312 L 157.363281 41.1875 L 155.136719 41.1875 L 155.136719 35.472656 C 155.136719 34.785156 154.980469 34.308594 154.664062 34.046875 C 154.382812 33.816406 153.929688 33.699219 153.3125 33.699219 C 152.78125 33.699219 152.234375 33.785156 151.671875 33.953125 L 151.671875 41.1875 L 149.441406 41.1875 "/>
<path style=" stroke:none;fill-rule:nonzero;fill:rgb(12.188721%,16.275024%,34.007263%);fill-opacity:1;" d="M 167.996094 37.035156 L 161.714844 37.035156 C 161.8125 38.730469 162.753906 39.578125 164.542969 39.578125 C 165.648438 39.578125 166.644531 39.253906 167.527344 38.609375 L 167.527344 40.472656 C 166.496094 41.09375 165.390625 41.402344 164.214844 41.402344 C 162.648438 41.402344 161.453125 40.9375 160.628906 40.011719 C 159.914062 39.199219 159.558594 38.105469 159.558594 36.738281 C 159.558594 35.171875 160.019531 33.933594 160.941406 33.023438 C 161.746094 32.234375 162.773438 31.84375 164.019531 31.84375 C 164.894531 31.84375 165.652344 32.050781 166.300781 32.472656 C 166.863281 32.847656 167.285156 33.339844 167.566406 33.957031 C 167.851562 34.617188 167.996094 35.628906 167.996094 36.996094 C 167.996094 37.015625 167.996094 37.027344 167.996094 37.035156 Z M 161.859375 35.441406 L 165.84375 35.441406 C 165.746094 34.167969 165.125 33.535156 163.984375 33.535156 C 163.378906 33.535156 162.890625 33.726562 162.511719 34.109375 C 162.175781 34.4375 161.957031 34.882812 161.859375 35.441406 "/>
<path style=" stroke:none;fill-rule:nonzero;fill:rgb(12.188721%,16.275024%,34.007263%);fill-opacity:1;" d="M 169.839844 40.867188 L 169.839844 38.84375 C 170.714844 39.386719 171.546875 39.664062 172.324219 39.664062 C 173.3125 39.664062 173.808594 39.355469 173.808594 38.738281 C 173.808594 38.320312 173.515625 37.972656 172.929688 37.707031 L 172.03125 37.277344 C 171.203125 36.894531 170.621094 36.472656 170.285156 36.015625 C 169.988281 35.613281 169.839844 35.136719 169.839844 34.589844 C 169.839844 33.707031 170.195312 33.019531 170.90625 32.523438 C 171.53125 32.09375 172.335938 31.875 173.324219 31.875 C 174.140625 31.875 174.925781 32.042969 175.683594 32.378906 L 175.683594 34.292969 C 174.933594 33.832031 174.199219 33.601562 173.480469 33.601562 C 172.492188 33.601562 171.996094 33.894531 171.996094 34.476562 C 171.996094 34.714844 172.097656 34.914062 172.300781 35.070312 C 172.488281 35.210938 172.910156 35.4375 173.570312 35.75 C 174.480469 36.210938 175.09375 36.621094 175.40625 36.976562 C 175.804688 37.433594 176 37.988281 176 38.644531 C 176 39.566406 175.636719 40.277344 174.910156 40.777344 C 174.277344 41.214844 173.445312 41.4375 172.40625 41.4375 C 171.519531 41.4375 170.660156 41.246094 169.839844 40.867188 "/>
</g>
</svg>

<svg xmlns="http://www.w3.org/2000/svg" width="176pt" height="60.32" viewBox="0 0 176 45.24"><defs><clipPath id="a"><path d="M0 38h10v7.238H0Zm0 0"/></clipPath></defs><g clip-path="url(#a)"><path d="M9.797 41.625c0 1.996-2.192 3.613-4.899 3.613-2.71 0-4.898-1.617-4.898-3.613s2.188-3.613 4.898-3.613c2.707 0 4.899 1.617 4.899 3.613" style="stroke:none;fill-rule:nonzero;fill:#ef3238;fill-opacity:1"/></g><path d="M13.223 33.02c0 1.667-1.922 3.015-4.297 3.02-2.375-.005-4.301-1.352-4.301-3.02 0-1.665 1.926-3.008 4.3-3.008 2.376 0 4.298 1.343 4.298 3.008M16.023 25.844c0 1.34-1.636 2.426-3.656 2.43-2.023 0-3.66-1.09-3.66-2.43 0-1.344 1.637-2.43 3.66-2.43 2.02 0 3.656 1.086 3.656 2.43M23.504 6.227c-.004.527-.856.957-1.91.957-1.055 0-1.91-.43-1.91-.957 0-.528.855-.954 1.91-.957 1.054 0 1.906.425 1.91.957M25.707.684c0 .382-.64.687-1.434.691-.796 0-1.433-.309-1.437-.691 0-.38.64-.684 1.437-.684.793 0 1.434.305 1.434.684M24.668 3.324c0 .442-.742.793-1.656.797-.918 0-1.657-.355-1.66-.797 0-.441.742-.793 1.66-.793.914 0 1.656.352 1.656.793M18.398 19.535c0 1.074-1.394 1.95-3.113 1.95s-3.117-.876-3.117-1.95 1.398-1.953 3.117-1.953 3.113.879 3.113 1.953M20.445 14.266c0 .863-1.187 1.57-2.652 1.57-1.469 0-2.66-.707-2.66-1.57s1.191-1.57 2.66-1.57c1.465 0 2.652.706 2.652 1.57M21.223 41.023c0 1.797-1.989 3.247-4.446 3.247s-4.445-1.45-4.445-3.247 1.988-3.25 4.441-3.246c2.461 0 4.45 1.453 4.45 3.246M31 38.32c0 1.586-1.793 2.867-4.008 2.867s-4.008-1.28-4.008-2.867c0-1.578 1.793-2.863 4.008-2.863S31 36.734 31 38.32M35.988 32.82c0 1.25-1.465 2.262-3.281 2.262-1.812 0-3.281-1.012-3.281-2.262 0-1.242 1.469-2.254 3.281-2.254s3.281 1.008 3.281 2.254M31.215 23.012c.004.828-1.07 1.496-2.387 1.496-1.32 0-2.39-.668-2.39-1.496 0-.825 1.07-1.496 2.39-1.496 1.317 0 2.39.672 2.387 1.496M22.215 9.879c0 .691-1.012 1.25-2.262 1.25-1.242 0-2.254-.559-2.254-1.25s1.012-1.25 2.254-1.25c1.25 0 2.262.559 2.262 1.25M35.11 27.121c.003 1.012-1.243 1.824-2.782 1.82-1.539.004-2.781-.816-2.781-1.82-.008-1 1.242-1.816 2.781-1.816s2.781.816 2.781 1.816" style="stroke:none;fill-rule:nonzero;fill:#ef3238;fill-opacity:1"/><path d="M45.785 41.023V27.121h2.23v5.129q1.068-.375 2.024-.375 2.074 0 3.223 1.383c.664.8 1 1.847 1 3.133 0 1.695-.567 2.96-1.696 3.804q-1.472 1.107-4.082 1.106-1.115-.001-2.699-.278m2.23-7.07v5.492q.475.082.856.082 3.11-.001 3.11-2.984.001-1.454-.766-2.191-.668-.652-1.813-.653c-.437 0-.902.086-1.386.254M56.543 41.188V32.68c1.289-.524 2.594-.79 3.922-.79q.944.002 1.789.262v1.875q-.72-.26-1.563-.261-.984.001-1.921.355v7.066zM63.723 32.043h2.226v5.453c0 .77.16 1.285.477 1.555.277.242.746.36 1.418.36q.667-.002 1.488-.173v-7.195h2.227v8.824q-2.227.434-3.903.434-2.116.001-3.078-.848a2.5 2.5 0 0 1-.691-1.18q-.165-.622-.164-1.683zM73.996 40.867v-2.023c.879.543 1.711.82 2.488.82q1.484 0 1.485-.926c0-.418-.293-.765-.88-1.031l-.898-.43q-1.242-.574-1.746-1.261a2.34 2.34 0 0 1-.449-1.426c0-.883.36-1.57 1.07-2.067q.938-.646 2.414-.648 1.228 0 2.364.504v1.914q-1.125-.691-2.203-.691-1.484.001-1.485.875 0 .358.305.593.28.21 1.27.68c.914.46 1.523.871 1.835 1.227q.593.684.594 1.668 0 1.382-1.086 2.132-.954.659-2.508.66-1.334 0-2.57-.57M81.95 40.867v-2.023c.874.543 1.702.82 2.484.82q1.481 0 1.48-.926c0-.418-.293-.765-.879-1.031l-.894-.43q-1.243-.574-1.746-1.261c-.301-.403-.446-.88-.446-1.426q0-1.323 1.07-2.067.934-.646 2.41-.648 1.227 0 2.36.504v1.914q-1.126-.691-2.2-.691-1.485.001-1.484.875.001.358.301.593.287.21 1.27.68c.918.46 1.527.871 1.84 1.227q.592.684.593 1.668 0 1.382-1.086 2.132-.954.659-2.507.66-1.336 0-2.567-.57M98.234 37.035h-6.28q.144 2.543 2.827 2.543c1.11 0 2.102-.324 2.989-.969v1.864a6.33 6.33 0 0 1-3.317.93q-2.343-.001-3.586-1.391c-.71-.813-1.07-1.907-1.07-3.274q0-2.349 1.383-3.715 1.213-1.182 3.082-1.18c.87 0 1.633.208 2.277.63.563.375.984.867 1.266 1.484q.432.989.43 3.04zm-6.132-1.594h3.984c-.102-1.273-.719-1.906-1.863-1.906q-.904 0-1.473.574-.502.494-.648 1.332M100.527 41.188V27.12h2.23v14.067zM105.215 40.867v-2.023c.879.543 1.707.82 2.488.82q1.478 0 1.48-.926c0-.418-.292-.765-.878-1.031l-.895-.43c-.832-.382-1.41-.804-1.746-1.261a2.34 2.34 0 0 1-.45-1.426q0-1.323 1.071-2.067.932-.646 2.414-.648 1.227 0 2.36.504v1.914q-1.125-.691-2.204-.691-1.481.001-1.48.875.002.358.3.593c.188.14.614.367 1.27.68q1.371.691 1.84 1.227.593.684.594 1.668 0 1.382-1.09 2.132-.95.659-2.504.66-1.334 0-2.57-.57M117.441 34.723v-1.914q1.75-.933 3.559-.934c1.313 0 2.172.39 2.566 1.164.204.387.305 1.106.305 2.168v5.797q-2.363.333-3.851.332-1.723.001-2.465-.707-.65-.622-.649-1.875 0-1.868 1.574-2.629 1.038-.502 3.153-.734l.191-.016v-.332q0-.801-.328-1.094-.293-.248-.992-.25c-.969 0-1.988.344-3.063 1.024m4.422 4.761v-2.437q-1.717.13-2.355.523-.558.34-.559 1.024-.001 1.036 1.215 1.035.68.001 1.7-.145M126.59 30.32v-2.379h2.293v2.38Zm.031 10.868v-9.126h2.227v9.126zM131.723 41.188V32.68c1.289-.524 2.597-.79 3.922-.79q.943.002 1.789.262v1.875q-.72-.26-1.563-.261-.984.001-1.922.355v7.066zM139.219 41.188V27.12h2.226v14.067zM144.309 30.32v-2.379h2.293v2.38Zm.03 10.868v-9.126h2.227v9.126zM149.441 41.188v-8.68q2.157-.616 4.145-.617 2.163 0 3.043.937.733.787.734 2.492v5.868h-2.226v-5.715q0-1.032-.473-1.426c-.281-.23-.734-.348-1.351-.348q-.798.001-1.641.254v7.234zM167.996 37.035h-6.281q.145 2.543 2.828 2.543a4.94 4.94 0 0 0 2.984-.969v1.864a6.3 6.3 0 0 1-3.312.93q-2.35-.001-3.586-1.391-1.071-1.221-1.07-3.274 0-2.349 1.382-3.715 1.208-1.182 3.079-1.18c.875 0 1.632.208 2.28.63.563.375.985.867 1.266 1.484q.43.989.43 3.04zm-6.137-1.594h3.985q-.148-1.908-1.86-1.906-.905 0-1.472.574-.505.494-.653 1.332M169.84 40.867v-2.023c.875.543 1.707.82 2.484.82q1.484 0 1.485-.926c0-.418-.293-.765-.88-1.031l-.898-.43q-1.242-.574-1.746-1.261-.445-.606-.445-1.426 0-1.323 1.066-2.067.937-.646 2.418-.648 1.224 0 2.36.504v1.914q-1.125-.691-2.204-.691-1.483.001-1.484.875 0 .358.305.593.28.21 1.27.68 1.366.691 1.835 1.227c.399.457.594 1.011.594 1.668q0 1.382-1.09 2.132c-.633.438-1.465.66-2.504.66a6.1 6.1 0 0 1-2.566-.57" style="stroke:none;fill-rule:nonzero;fill:#1f2a57;fill-opacity:1"/></svg>
